2 Export/Icons/Rounded/2 View/Grid - 01.svg

<svg xmlns="http://www.w3.org/2000/svg" xmlns:xlink="http://www.w3.org/1999/xlink" width="24" height="24" viewBox="0 0 24 24">
  <defs>
    <path id="grid---01-a" d="M4,3 L10,3 C10.5522847,3 11,3.44771525 11,4 L11,10 C11,10.5522847 10.5522847,11 10,11 L4,11 C3.44771525,11 3,10.5522847 3,10 L3,4 C3,3.44771525 3.44771525,3 4,3 Z M14,3 L20,3 C20.5522847,3 21,3.44771525 21,4 L21,10 C21,10.5522847 20.5522847,11 20,11 L14,11 C13.4477153,11 13,10.5522847 13,10 L13,4 C13,3.44771525 13.4477153,3 14,3 Z M4,13 L10,13 C10.5522847,13 11,13.4477153 11,14 L11,20 C11,20.5522847 10.5522847,21 10,21 L4,21 C3.44771525,21 3,20.5522847 3,20 L3,14 C3,13.4477153 3.44771525,13 4,13 Z M14,13 L20,13 C20.5522847,13 21,13.4477153 21,14 L21,20 C21,20.5522847 20.5522847,21 20,21 L14,21 C13.4477153,21 13,20.5522847 13,20 L13,14 C13,13.4477153 13.4477153,13 14,13 Z"/>
  </defs>
  <g fill="none" fill-rule="evenodd">
    <polygon points="0 0 24 0 24 24 0 24"/>
    <mask id="grid---01-b" fill="#fff">
      <use xlink:href="#grid---01-a"/>
    </mask>
    <use fill="#000" xlink:href="#grid---01-a"/>
    <g fill="#000" mask="url(#grid---01-b)">
      <rect width="24" height="24"/>
    </g>
  </g>
</svg>

<svg xmlns="http://www.w3.org/2000/svg" xmlns:xlink="http://www.w3.org/1999/xlink" width="24" height="24" viewBox="0 0 24 24">
  <defs>
    <path id="grid---01-a" d="M4 3h6a1 1 0 0 1 1 1v6a1 1 0 0 1-1 1H4a1 1 0 0 1-1-1V4a1 1 0 0 1 1-1zm10 0h6a1 1 0 0 1 1 1v6a1 1 0 0 1-1 1h-6a1 1 0 0 1-1-1V4a1 1 0 0 1 1-1zM4 13h6a1 1 0 0 1 1 1v6a1 1 0 0 1-1 1H4a1 1 0 0 1-1-1v-6a1 1 0 0 1 1-1zm10 0h6a1 1 0 0 1 1 1v6a1 1 0 0 1-1 1h-6a1 1 0 0 1-1-1v-6a1 1 0 0 1 1-1z"/>
  </defs>
  <g fill="none" fill-rule="evenodd">
    <polygon points="0 0 24 0 24 24 0 24"/>
    <mask id="grid---01-b" fill="#fff">
      <use xlink:href="#grid---01-a"/>
    </mask>
    <use fill="#000" xlink:href="#grid---01-a"/>
    <g fill="#000" mask="url(#grid---01-b)">
      <rect width="24" height="24"/>
    </g>
  </g>
</svg>
